src/actions/16/path-division.svg

<svg xmlns="http://www.w3.org/2000/svg" viewBox="0 0 16 16">
  <defs id="defs3051">
    <style type="text/css" id="current-color-scheme">
      .ColorScheme-Text {
        color:#2e3440;
      }
      </style>
  </defs>
 <path style="fill:currentColor;fill-opacity:1;stroke:none" 
     d="M 9 2.03125 A 4.5 4.5 0 0 0 7.6992188 2.3789062 L 8.203125 3.2519531 A 3.5 3.5 0 0 1 9 3.0390625 L 9 2.03125 z M 10 2.0332031 L 10 3.0410156 A 3.5 3.5 0 0 1 10.796875 3.2519531 L 11.298828 2.3828125 A 4.5 4.5 0 0 0 10 2.0332031 z M 6.8339844 2.8808594 A 4.5 4.5 0 0 0 5.8808594 3.8339844 L 6.7539062 4.3359375 A 3.5 3.5 0 0 1 7.3339844 3.75 L 6.8339844 2.8808594 z M 12.166016 2.8808594 L 11.664062 3.7539062 A 3.5 3.5 0 0 1 12.25 4.3339844 L 13.119141 3.8339844 A 4.5 4.5 0 0 0 12.166016 2.8808594 z M 13.621094 4.6992188 L 12.748047 5.203125 A 3.5 3.5 0 0 1 12.960938 6 L 13.96875 6 A 4.5 4.5 0 0 0 13.621094 4.6992188 z M 5.3828125 4.7011719 A 4.5 4.5 0 0 0 5.0332031 6 L 2 6 L 2 14 L 10 14 L 10 10.96875 A 4.5 4.5 0 0 0 11.300781 10.621094 L 10.796875 9.7480469 A 3.5 3.5 0 0 1 10 9.9589844 L 10 6 L 6.0390625 6 A 3.5 3.5 0 0 1 6.2519531 5.203125 L 5.3828125 4.7011719 z M 3 7 L 5.0292969 7 A 4.5 4.5 0 0 0 9 10.966797 L 9 13 L 3 13 L 3 7 z M 6.0390625 7 L 9 7 L 9 9.9589844 A 3.5 3.5 0 0 1 6.0390625 7 z M 12.958984 7 A 3.5 3.5 0 0 1 12.748047 7.796875 L 13.617188 8.2988281 A 4.5 4.5 0 0 0 13.966797 7 L 12.958984 7 z M 12.246094 8.6640625 A 3.5 3.5 0 0 1 11.666016 9.25 L 12.166016 10.119141 A 4.5 4.5 0 0 0 13.119141 9.1660156 L 12.246094 8.6640625 z "
     class="ColorScheme-Text"
     />
 <path style="fill:currentColor;fill-opacity:0.5;stroke:none" 
     d="M 3 7 L 3 13 L 9 13 L 9 7 L 3 7 z "
     class="ColorScheme-Text"
     />
</svg>

<svg viewBox="0 0 16 16" xmlns="http://www.w3.org/2000/svg">
 <defs>
  <style type="text/css">.ColorScheme-Text {
        color:#2e3440;
      }</style>
 </defs>
 <path class="ColorScheme-Text" d="m9 2.0312a4.5 4.5 0 0 0-1.3008 0.34766l0.50391 0.87305a3.5 3.5 0 0 1 0.79688-0.21289v-1.0078zm1 0.0019531v1.0078a3.5 3.5 0 0 1 0.79688 0.21094l0.50195-0.86914a4.5 4.5 0 0 0-1.2988-0.34961zm-3.166 0.84766a4.5 4.5 0 0 0-0.95312 0.95312l0.87305 0.50195a3.5 3.5 0 0 1 0.58008-0.58594l-0.5-0.86914zm5.332 0-0.50195 0.87305a3.5 3.5 0 0 1 0.58594 0.58008l0.86914-0.5a4.5 4.5 0 0 0-0.95312-0.95312zm1.4551 1.8184-0.87305 0.50391a3.5 3.5 0 0 1 0.21289 0.79688h1.0078a4.5 4.5 0 0 0-0.34766-1.3008zm-8.2383 0.0019531a4.5 4.5 0 0 0-0.34961 1.2988h-3.0332v8h8v-3.0312a4.5 4.5 0 0 0 1.3008-0.34766l-0.50391-0.87305a3.5 3.5 0 0 1-0.79688 0.21094v-3.959h-3.9609a3.5 3.5 0 0 1 0.21289-0.79688l-0.86914-0.50195zm-2.3828 2.2988h2.0293a4.5 4.5 0 0 0 3.9707 3.9668v2.0332h-6v-6zm3.0391 0h2.9609v2.959a3.5 3.5 0 0 1-2.9609-2.959zm6.9199 0a3.5 3.5 0 0 1-0.21094 0.79688l0.86914 0.50195a4.5 4.5 0 0 0 0.34961-1.2988h-1.0078zm-0.71289 1.6641a3.5 3.5 0 0 1-0.58008 0.58594l0.5 0.86914a4.5 4.5 0 0 0 0.95312-0.95313l-0.87305-0.50195z" fill="currentColor"/>
 <path class="ColorScheme-Text" d="m3 7v6h6v-6h-6z" fill="currentColor" fill-opacity=".5"/>
</svg>
